Newaita-dark/actions/22/edit-paste-style.svg

<svg height="22" viewBox="0 0 22 22" width="22" xmlns="http://www.w3.org/2000/svg"><g fill="#e0e0e0"><path d="m11.824219 2.902344v9.09375c0 .503906-.40625.910156-.910157.910156-.5 0-.90625-.40625-.90625-.910156v-9.09375c0-.503906.40625-.910156.90625-.910156.503907 0 .910157.40625.910157.910156zm0 0"/><path d="m17.28125 13.816406h-12.734375c-.5 0-.910156-.40625-.910156-.910156s.410156-.910156.910156-.910156h12.734375c.503906 0 .910156.40625.910156.910156s-.40625.910156-.910156.910156zm0 0"/><path d="m4.546875 14.808594c-.257813 0-.46875.210937-.46875.472656 0 1.363281.027344 2.925781-1.632813 4.167969-.363281.273437-.167968.851562.285157.851562h3.636719c.09375 0 .183593-.027343.261718-.082031.929688-.617188 1.648438-1.242188 2.300782-1.855469-.117188.300781-.316407.65625-.679688 1.203125-.210938.3125.015625.734375.390625.734375h6.824219c.101562 0 .199218-.035156.28125-.09375 1.980468-1.488281 2.011718-3.566406 2.007812-4.929687 0-.257813-.210937-.46875-.472656-.46875zm0 0"/></g></svg>

<?xml version="1.0" encoding="UTF-8"?>
<svg xmlns="http://www.w3.org/2000/svg" xmlns:xlink="http://www.w3.org/1999/xlink" width="22px" height="22px" viewBox="0 0 22 22" version="1.1">
<g id="surface1">
<path style=" stroke:none;fill-rule:nonzero;fill:rgb(87.843138%,87.843138%,87.843138%);fill-opacity:1;" d="M 11.824219 2.902344 L 11.824219 11.996094 C 11.824219 12.5 11.417969 12.90625 10.914062 12.90625 C 10.414062 12.90625 10.007812 12.5 10.007812 11.996094 L 10.007812 2.902344 C 10.007812 2.398438 10.414062 1.992188 10.914062 1.992188 C 11.417969 1.992188 11.824219 2.398438 11.824219 2.902344 Z M 11.824219 2.902344 "/>
<path style=" stroke:none;fill-rule:nonzero;fill:rgb(87.843138%,87.843138%,87.843138%);fill-opacity:1;" d="M 17.28125 13.816406 L 4.546875 13.816406 C 4.046875 13.816406 3.636719 13.410156 3.636719 12.90625 C 3.636719 12.402344 4.046875 11.996094 4.546875 11.996094 L 17.28125 11.996094 C 17.785156 11.996094 18.191406 12.402344 18.191406 12.90625 C 18.191406 13.410156 17.785156 13.816406 17.28125 13.816406 Z M 17.28125 13.816406 "/>
<path style=" stroke:none;fill-rule:nonzero;fill:rgb(87.843138%,87.843138%,87.843138%);fill-opacity:1;" d="M 4.546875 14.808594 C 4.289062 14.808594 4.078125 15.019531 4.078125 15.28125 C 4.078125 16.644531 4.105469 18.207031 2.445312 19.449219 C 2.082031 19.722656 2.277344 20.300781 2.730469 20.300781 L 6.367188 20.300781 C 6.460938 20.300781 6.550781 20.273438 6.628906 20.21875 C 7.558594 19.601562 8.277344 18.976562 8.929688 18.363281 C 8.8125 18.664062 8.613281 19.019531 8.25 19.566406 C 8.039062 19.878906 8.265625 20.300781 8.640625 20.300781 L 15.464844 20.300781 C 15.566406 20.300781 15.664062 20.265625 15.746094 20.207031 C 17.726562 18.71875 17.757812 16.640625 17.753906 15.277344 C 17.753906 15.019531 17.542969 14.808594 17.28125 14.808594 Z M 4.546875 14.808594 "/>
</g>
</svg>
